static/img/in-field/checkbox-spec-dark.svg

<svg fill="none" height="56" viewBox="0 0 167 56" width="167" xmlns="http://www.w3.org/2000/svg"><path d="m46.625 7h-9v42h9" stroke="#4091d2"/><path d="m6.66211 35.2246h-1.03125v1.7754h-1.76953v-1.7754h-3.656252v-1.2598l3.755862-5.5312h1.66992v5.3848h1.03125zm-2.80078-1.4062v-1.4532c0-.2422.00976-.5937.02929-1.0547.01954-.4609.03516-.7285.04688-.8027h-.04688c-.14453.3203-.31835.6328-.52148.9375l-1.57031 2.3731zm9.39087 3.1816h-5.98826v-1.2598l2.15039-2.1738c.63667-.6523 1.05277-1.1035 1.24807-1.3535.1953-.2539.3359-.4883.4218-.7031.086-.2149.129-.4375.129-.668 0-.3438-.0957-.5996-.2872-.7676-.1875-.168-.4394-.2519-.7558-.2519-.33204 0-.65431.0761-.96681.2285-.3125.1523-.63867.3691-.97852.6504l-.98437-1.166c.42187-.3594.77148-.6133 1.04883-.7618.27734-.1484.58008-.2617.9082-.3398.32813-.082.69531-.1231 1.10157-.1231.5351 0 1.0078.0977 1.418.293.4101.1953.7285.4688.955.8203.2266.3516.3399.7539.3399 1.2071 0 .3945-.0703.7656-.211 1.1132-.1367.3438-.3515.6973-.6445 1.0606-.289.3633-.8008.8808-1.5351 1.5527l-1.1016 1.0371v.0821h3.7324zm3.3265.1172c-.7696 0-1.375-.2988-1.8165-.8965-.4375-.5977-.6562-1.4258-.6562-2.4844 0-1.0742.2227-1.9101.668-2.5078.4492-.6015 1.0664-.9023 1.8515-.9023.8242 0 1.4532.3203 1.8867.9609h.0586c-.0898-.4883-.1347-.9238-.1347-1.3066v-2.0977h1.7929v9.1172h-1.371l-.3458-.8496h-.0761c-.4063.6445-1.0254.9668-1.8574.9668zm.6269-1.4238c.457 0 .791-.1329 1.002-.3985.2148-.2656.332-.7168.3515-1.3535v-.1934c0-.7031-.1094-1.207-.3281-1.5117-.2148-.3047-.5664-.457-1.0547-.457-.3984 0-.709.1699-.9316.5098-.2188.3359-.3282.8261-.3282 1.4707 0 .6445.1114 1.1289.334 1.4531.2227.3203.541.4805.9551.4805zm8.4182 1.4238c-.7695 0-1.373-.2793-1.8105-.8379h-.0938c.0625.5469.0938.8633.0938.9492v2.6543h-1.7871v-9.4336h1.4531l.252.8496h.082c.418-.6484 1.0371-.9726 1.8574-.9726.7735 0 1.3789.2988 1.8164.8965.4375.5976.6563 1.4277.6563 2.4902 0 .6992-.1035 1.3066-.3106 1.8223-.2031.5156-.4941.9082-.873 1.1777s-.8242.4043-1.336.4043zm-.5273-5.3613c-.4414 0-.7637.1367-.9668.4101-.2031.2695-.3086.7168-.3164 1.3418v.1934c0 .7031.1035 1.207.3105 1.5117.211.3047.543.457.9961.457.8008 0 1.2012-.6601 1.2012-1.9804 0-.6446-.0996-1.127-.2988-1.4473-.1953-.3242-.5039-.4863-.9258-.4863z" fill="#4091d2"/><path clip-rule="evenodd" d="m80.625 14.6666c-7.36 0-13.3334 5.9734-13.3334 13.3334s5.9734 13.3333 13.3334 13.3333 13.3333-5.9733 13.3333-13.3333-5.9733-13.3334-13.3333-13.3334zm0 6.6667c-3.68 0-6.6667 2.9867-6.6667 6.6667s2.9867 6.6666 6.6667 6.6666 6.6666-2.9866 6.6666-6.6666-2.9866-6.6667-6.6666-6.6667zm-10.6667 6.6667c0 5.8933 4.7733 10.6666 10.6667 10.6666 5.8933 0 10.6666-4.7733 10.6666-10.6666 0-5.8934-4.7733-10.6667-10.6666-10.6667-5.8934 0-10.6667 4.7733-10.6667 10.6667z" fill="#217cbb" fill-rule="evenodd"/><circle cx="80.625" cy="28" r="19" stroke="#019aeb" stroke-width="3"/><path d="m115 14.3333h9v27h-9" stroke="#4091d2"/><path d="m140.469 30.0106h-5.989v-1.2597l2.151-2.1739c.637-.6523 1.053-1.1035 1.248-1.3535.195-.2539.336-.4883.422-.7031.086-.2149.129-.4375.129-.668 0-.3437-.096-.5996-.287-.7676-.188-.1679-.44-.2519-.756-.2519-.332 0-.655.0762-.967.2285-.313.1523-.639.3691-.979.6504l-.984-1.166c.422-.3594.772-.6133 1.049-.7617.277-.1485.58-.2618.908-.3399.328-.082.695-.123 1.102-.123.535 0 1.007.0976 1.418.2929.41.1953.728.4688.955.8203.226.3516.34.754.34 1.2071 0 .3945-.071.7656-.211 1.1133-.137.3437-.352.6972-.645 1.0605-.289.3633-.801.8809-1.535 1.5527l-1.102 1.0372v.082h3.733zm.736-3.6387c0-1.6953.358-2.957 1.073-3.7851.718-.8281 1.793-1.2422 3.222-1.2422.489 0 .871.0293 1.149.0879v1.4473c-.348-.0782-.692-.1172-1.032-.1172-.621 0-1.128.0937-1.523.2812-.391.1875-.684.4649-.879.8321-.195.3671-.31.8886-.346 1.5644h.077c.386-.6641 1.005-.9961 1.857-.9961.766 0 1.365.2402 1.799.7207.433.4805.65 1.1445.65 1.9922 0 .9141-.258 1.6387-.773 2.1738-.516.5313-1.231.7969-2.145.7969-.633 0-1.185-.1465-1.658-.4394-.469-.293-.832-.7207-1.09-1.2832-.254-.5625-.381-1.2403-.381-2.0333zm3.094 2.3086c.387 0 .684-.1289.891-.3867.207-.2617.31-.6328.31-1.1133 0-.4179-.097-.7461-.293-.9843-.191-.2422-.482-.3633-.873-.3633-.367 0-.681.1191-.943.3574-.258.2383-.387.5156-.387.832 0 .4649.121.8575.363 1.1778.247.3203.557.4804.932.4804zm6.28 1.4473c-.77 0-1.375-.2988-1.817-.8965-.437-.5976-.656-1.4258-.656-2.4844 0-1.0742.223-1.9101.668-2.5078.449-.6015 1.066-.9023 1.852-.9023.824 0 1.453.3203 1.886.9609h.059c-.09-.4883-.135-.9238-.135-1.3066v-2.0977h1.793v9.1172h-1.371l-.346-.8496h-.076c-.406.6445-1.025.9668-1.857.9668zm.627-1.4238c.457 0 .791-.1328 1.002-.3985.214-.2656.332-.7168.351-1.3535v-.1933c0-.7032-.109-1.2071-.328-1.5118-.215-.3046-.566-.457-1.055-.457-.398 0-.709.1699-.931.5098-.219.3359-.328.8262-.328 1.4707s.111 1.1289.334 1.4531c.222.3203.541.4805.955.4805zm8.418 1.4238c-.77 0-1.373-.2793-1.811-.8379h-.093c.062.5469.093.8633.093.9492v2.6543h-1.787v-9.4336h1.453l.252.8496h.082c.418-.6484 1.037-.9726 1.858-.9726.773 0 1.379.2988 1.816.8965.438.5976.656 1.4277.656 2.4902 0 .6992-.103 1.3067-.31 1.8223-.203.5156-.494.9082-.873 1.1777s-.824.4043-1.336.4043zm-.527-5.3613c-.442 0-.764.1367-.967.4101-.203.2696-.309.7168-.317 1.3418v.1934c0 .7031.104 1.207.311 1.5117.211.3047.543.457.996.457.801 0 1.201-.6601 1.201-1.9804 0-.6446-.099-1.127-.299-1.4473-.195-.3242-.504-.4863-.925-.4863z" fill="#4091d2"/></svg>

<svg width="167" height="56" viewBox="0 0 167 56" fill="none" xmlns="http://www.w3.org/2000/svg"><path d="M46.625 7H37.625V49H46.625" stroke="#4091D2"/><path d="M6.66211 35.2246H5.63086V37H3.86133V35.2246H0.205078V33.9648L3.96094 28.4336H5.63086V33.8184H6.66211V35.2246ZM3.86133 33.8184V32.3652C3.86133 32.123 3.87109 31.7715 3.89062 31.3105C3.91016 30.8496 3.92578 30.582 3.9375 30.5078H3.89062C3.74609 30.8281 3.57227 31.1406 3.36914 31.4453L1.79883 33.8184H3.86133ZM13.2522 37H7.26394V35.7402L9.41433 33.5664C10.051 32.9141 10.4671 32.4629 10.6624 32.2129C10.8577 31.959 10.9983 31.7246 11.0842 31.5098C11.1702 31.2949 11.2132 31.0723 11.2132 30.8418C11.2132 30.498 11.1175 30.2422 10.926 30.0742C10.7385 29.9062 10.4866 29.8223 10.1702 29.8223C9.83816 29.8223 9.51589 29.8984 9.20339 30.0508C8.89089 30.2031 8.56472 30.4199 8.22487 30.7012L7.2405 29.5352C7.66237 29.1758 8.01198 28.9219 8.28933 28.7734C8.56667 28.625 8.86941 28.5117 9.19753 28.4336C9.52566 28.3516 9.89284 28.3105 10.2991 28.3105C10.8342 28.3105 11.3069 28.4082 11.7171 28.6035C12.1272 28.7988 12.4456 29.0723 12.6721 29.4238C12.8987 29.7754 13.012 30.1777 13.012 30.6309C13.012 31.0254 12.9417 31.3965 12.801 31.7441C12.6643 32.0879 12.4495 32.4414 12.1565 32.8047C11.8675 33.168 11.3557 33.6855 10.6214 34.3574L9.5198 35.3945V35.4766H13.2522V37ZM16.5787 37.1172C15.8091 37.1172 15.2037 36.8184 14.7622 36.2207C14.3247 35.623 14.106 34.7949 14.106 33.7363C14.106 32.6621 14.3287 31.8262 14.774 31.2285C15.2232 30.627 15.8404 30.3262 16.6255 30.3262C17.4497 30.3262 18.0787 30.6465 18.5122 31.2871H18.5708C18.481 30.7988 18.4361 30.3633 18.4361 29.9805V27.8828H20.229V37H18.858L18.5122 36.1504H18.4361C18.0298 36.7949 17.4107 37.1172 16.5787 37.1172ZM17.2056 35.6934C17.6626 35.6934 17.9966 35.5605 18.2076 35.2949C18.4224 35.0293 18.5396 34.5781 18.5591 33.9414V33.748C18.5591 33.0449 18.4497 32.541 18.231 32.2363C18.0162 31.9316 17.6646 31.7793 17.1763 31.7793C16.7779 31.7793 16.4673 31.9492 16.2447 32.2891C16.0259 32.625 15.9165 33.1152 15.9165 33.7598C15.9165 34.4043 16.0279 34.8887 16.2505 35.2129C16.4732 35.5332 16.7915 35.6934 17.2056 35.6934ZM25.6238 37.1172C24.8543 37.1172 24.2508 36.8379 23.8133 36.2793H23.7195C23.782 36.8262 23.8133 37.1426 23.8133 37.2285V39.8828H22.0262V30.4492H23.4793L23.7313 31.2988H23.8133C24.2313 30.6504 24.8504 30.3262 25.6707 30.3262C26.4442 30.3262 27.0496 30.625 27.4871 31.2227C27.9246 31.8203 28.1434 32.6504 28.1434 33.7129C28.1434 34.4121 28.0399 35.0195 27.8328 35.5352C27.6297 36.0508 27.3387 36.4434 26.9598 36.7129C26.5809 36.9824 26.1356 37.1172 25.6238 37.1172ZM25.0965 31.7559C24.6551 31.7559 24.3328 31.8926 24.1297 32.166C23.9266 32.4355 23.8211 32.8828 23.8133 33.5078V33.7012C23.8133 34.4043 23.9168 34.9082 24.1238 35.2129C24.3348 35.5176 24.6668 35.6699 25.1199 35.6699C25.9207 35.6699 26.3211 35.0098 26.3211 33.6895C26.3211 33.0449 26.2215 32.5625 26.0223 32.2422C25.827 31.918 25.5184 31.7559 25.0965 31.7559Z" fill="#4091D2"/><path fill-rule="evenodd" clip-rule="evenodd" d="M80.625 14.6666C73.265 14.6666 67.2916 20.64 67.2916 28C67.2916 35.36 73.265 41.3333 80.625 41.3333C87.985 41.3333 93.9583 35.36 93.9583 28C93.9583 20.64 87.985 14.6666 80.625 14.6666ZM80.625 21.3333C76.945 21.3333 73.9583 24.32 73.9583 28C73.9583 31.68 76.945 34.6666 80.625 34.6666C84.305 34.6666 87.2916 31.68 87.2916 28C87.2916 24.32 84.305 21.3333 80.625 21.3333ZM69.9583 28C69.9583 33.8933 74.7316 38.6666 80.625 38.6666C86.5183 38.6666 91.2916 33.8933 91.2916 28C91.2916 22.1066 86.5183 17.3333 80.625 17.3333C74.7316 17.3333 69.9583 22.1066 69.9583 28Z" fill="#217CBB"/><circle cx="80.625" cy="28" r="19" stroke="#019AEB" stroke-width="3"/><path d="M115 14.3333H124V41.3333H115" stroke="#4091D2"/><path d="M140.469 30.0106H134.48V28.7509L136.631 26.577C137.268 25.9247 137.684 25.4735 137.879 25.2235C138.074 24.9696 138.215 24.7352 138.301 24.5204C138.387 24.3055 138.43 24.0829 138.43 23.8524C138.43 23.5087 138.334 23.2528 138.143 23.0848C137.955 22.9169 137.703 22.8329 137.387 22.8329C137.055 22.8329 136.732 22.9091 136.42 23.0614C136.107 23.2137 135.781 23.4305 135.441 23.7118L134.457 22.5458C134.879 22.1864 135.229 21.9325 135.506 21.7841C135.783 21.6356 136.086 21.5223 136.414 21.4442C136.742 21.3622 137.109 21.3212 137.516 21.3212C138.051 21.3212 138.523 21.4188 138.934 21.6141C139.344 21.8094 139.662 22.0829 139.889 22.4344C140.115 22.786 140.229 23.1884 140.229 23.6415C140.229 24.036 140.158 24.4071 140.018 24.7548C139.881 25.0985 139.666 25.452 139.373 25.8153C139.084 26.1786 138.572 26.6962 137.838 27.368L136.736 28.4052V28.4872H140.469V30.0106ZM141.205 26.3719C141.205 24.6766 141.563 23.4149 142.278 22.5868C142.996 21.7587 144.071 21.3446 145.5 21.3446C145.989 21.3446 146.371 21.3739 146.649 21.4325V22.8798C146.301 22.8016 145.957 22.7626 145.617 22.7626C144.996 22.7626 144.489 22.8563 144.094 23.0438C143.703 23.2313 143.41 23.5087 143.215 23.8759C143.02 24.243 142.905 24.7645 142.869 25.4403H142.946C143.332 24.7762 143.951 24.4442 144.803 24.4442C145.569 24.4442 146.168 24.6844 146.602 25.1649C147.035 25.6454 147.252 26.3094 147.252 27.1571C147.252 28.0712 146.994 28.7958 146.479 29.3309C145.963 29.8622 145.248 30.1278 144.334 30.1278C143.701 30.1278 143.149 29.9813 142.676 29.6884C142.207 29.3954 141.844 28.9677 141.586 28.4052C141.332 27.8427 141.205 27.1649 141.205 26.3719ZM144.299 28.6805C144.686 28.6805 144.983 28.5516 145.19 28.2938C145.397 28.0321 145.5 27.661 145.5 27.1805C145.5 26.7626 145.403 26.4344 145.207 26.1962C145.016 25.954 144.725 25.8329 144.334 25.8329C143.967 25.8329 143.653 25.952 143.391 26.1903C143.133 26.4286 143.004 26.7059 143.004 27.0223C143.004 27.4872 143.125 27.8798 143.367 28.2001C143.614 28.5204 143.924 28.6805 144.299 28.6805ZM150.579 30.1278C149.809 30.1278 149.204 29.829 148.762 29.2313C148.325 28.6337 148.106 27.8055 148.106 26.7469C148.106 25.6727 148.329 24.8368 148.774 24.2391C149.223 23.6376 149.84 23.3368 150.626 23.3368C151.45 23.3368 152.079 23.6571 152.512 24.2977H152.571C152.481 23.8094 152.436 23.3739 152.436 22.9911V20.8934H154.229V30.0106H152.858L152.512 29.161H152.436C152.03 29.8055 151.411 30.1278 150.579 30.1278ZM151.206 28.704C151.663 28.704 151.997 28.5712 152.208 28.3055C152.422 28.0399 152.54 27.5887 152.559 26.952V26.7587C152.559 26.0555 152.45 25.5516 152.231 25.2469C152.016 24.9423 151.665 24.7899 151.176 24.7899C150.778 24.7899 150.467 24.9598 150.245 25.2997C150.026 25.6356 149.917 26.1259 149.917 26.7704C149.917 27.4149 150.028 27.8993 150.251 28.2235C150.473 28.5438 150.792 28.704 151.206 28.704ZM159.624 30.1278C158.854 30.1278 158.251 29.8485 157.813 29.2899H157.72C157.782 29.8368 157.813 30.1532 157.813 30.2391V32.8934H156.026V23.4598H157.479L157.731 24.3094H157.813C158.231 23.661 158.85 23.3368 159.671 23.3368C160.444 23.3368 161.05 23.6356 161.487 24.2333C161.925 24.8309 162.143 25.661 162.143 26.7235C162.143 27.4227 162.04 28.0302 161.833 28.5458C161.63 29.0614 161.339 29.454 160.96 29.7235C160.581 29.993 160.136 30.1278 159.624 30.1278ZM159.097 24.7665C158.655 24.7665 158.333 24.9032 158.13 25.1766C157.927 25.4462 157.821 25.8934 157.813 26.5184V26.7118C157.813 27.4149 157.917 27.9188 158.124 28.2235C158.335 28.5282 158.667 28.6805 159.12 28.6805C159.921 28.6805 160.321 28.0204 160.321 26.7001C160.321 26.0555 160.222 25.5731 160.022 25.2528C159.827 24.9286 159.518 24.7665 159.097 24.7665Z" fill="#4091D2"/></svg>
